!!!!SEGMENT: pl-wnifc--2227-n--001_mikuli-karol--grand-duo-op-26-andante-con-espressione.krn
!!!cenid: 18xx:3881
!!!COM: Mikuli, Karol
!!!COM-rismID: pe106110
!!!CDT: 1819-1897
!!!CNT:
!!!OPR: Grand Duo op. 26
!!!OTL: Andante con espressione
!!!OMV: 001
!!!PDT:
!!!AGN:
!!!SMS-siglum: PL-Wnifc
!!!SMS-shelfmark: 2227/n
!!!SMS-shelfwork: 001-001 M
!!!SMS-variant:
!!!SMS-altvar:
!!!NIFC-rismSourceID: 300605262
!!!NIFC-rismChildID: 300605262
!!!NIFC-islandoraID: nifc:211849
!!!URL-pdf-islandora: https://repozytorium.nifc.pl/islandora/object/nifc%3A211849/datastream/PDF/view
!!!URL-scan: https://polish.musicsources.pl/pl/lokalizacje/galeria/druki-muzyczne/16806 @EN{Scan on Polish Music Sources Website} @PL{Skany w portalu Dziedzictwo Muzyki Polskiej w otwartym dostępie}
!!!IIIF:
!!!ONB-nifc: UWAGA: części Duetu: 1. Andante con espressione, 2. Allegro giojoso, 3. Lento quasi Fantasia, 4. Finale. Allegro appassionato
!!!AIN: 1 piano 1 violn
!!!key: A
!!!OMD:
!!!OMD-mod: Andante con espressione
!!!filter-modern: sic -sq | shed -e "s/TX(.*):t=P:/tx$1:t=P:/LG" | shed -e "s/:rj/:RJ/L" | shed -k -e "s/([^a-gA-Gn#X-])[<>]/$1/g" | shed -k -e "s/:TUP:/:tup:/L" | shed -e "s/LO:DY:(a|b|rj)/LO:dy:$1/L" | shed -e "s/-//B" | autostem -r | modori -m
**kern	**fing	**kern	**fing	**dynam	**kern	**dynam
*part2	*part2	*part2	*part2	*part2	*part1	*part1
*staff3	*	*staff2	*	*	*staff1	*
*I"Piano	*	*I"Piano	*	*	*I"Violine.	*
*I'pf	*	*I'pf	*	*	*I'vl	*
*ICklav	*	*ICklav	*	*	*ICstr	*
*Ipiano	*	*Ipiano	*	*	*Ivioln	*
*mI"Pianoforte	*	*mI"Pianoforte	*	*	*mI"Violino	*
*clefF4	*	*clefG2	*	*	*clefG2	*
*k[f#c#g#]	*	*k[f#c#g#]	*	*	*k[f#c#g#]	*
*A:	*	*A:	*	*	*A:	*
*M4/4	*	*M4/4	*	*	*M4/4	*
*met(c)	*	*met(c)	*	*	*met(c)	*
=1	=1	=1	=1	=1	=1	=1
!	!	!LO:TX:a:B:t=Andante con espressione.:mod=	!	!	!LO:TX:a:B:t=Andante con espressione.:mod=	!
[1AAA [<1AA	.	4r	.	p	2cc#\	p
!	!	!LO:TX:b:i:t=legato	!	!	!	!
.	.	(>4e/	.	<	.	.
.	.	4f#/	.	.	(4dd\	<
.	.	4g#/	.	.	4ee\)	.
=2	=2	=2	=2	=2	=2	=2
1AAA_ 1AA_<	.	4a/	.	.	(4cc#\	.
.	.	4g#/	.	[ >	4ee\	.
.	.	4f#/	.	.	4aa\)	.
.	.	4fn/	.	.	4bb\	[
=3	=3	=3	=3	=3	=3	=3
.	.	.	.	.	(16qqaa/LL	>
.	.	.	.	.	16qqbb/JJ)	.
*	*	*^	*	*	*	*
2AAA/] 2AA]	.	4e/	2ryy	.	.	2ccc#\	.
.	.	4c#/	.	.	.	.	.
2BBB/ 2BB	.	4d#X/	2d#\	.	]	(8bb\L	.
.	.	.	.	.	.	8aa\	.
.	.	4A/	.	.	.	8gg#\	.
.	.	.	.	.	.	8ff#\J)	.
*	*	*v	*v	*	*	*	*
=4	=4	=4	=4	=4	=4	=4
*^	*	*	*	*	*	*
(4E/ 4G#	1EE	.	[1e)	.	.	2.ee\	.
4F#/ 4A	.	.	.	.	.	.	.
4F##X/ 4A#X	.	.	.	.	.	.	.
4G#/) 4B	.	.	.	.	.	4dd\	]
*v	*v	*	*	*	*	*	*
=5	=5	=5	=5	=5	=5	=5
[1AAA [<1AA	.	4An</ 4c#< 4e]	.	.	2cc#\	.
.	.	(>4e/	.	<	.	.
.	.	4f#/	.	.	(4dd\	<
.	.	4g#/	.	.	4ee\)	.
!!LO:LB:g=original	!	!	!	!
=6	=6	=6	=6	=6	=6	=6
(2.AAA/] 2.AA]	.	4a/	.	.	4cc#\	.
.	.	4g#/	.	[ >	4ee\	.
.	.	4f#/	.	.	[2aa\	[
4CC#/ 4C#	.	[4A/ 4e#X	.	]]	.	.
=7	=7	=7	=7	=7	=7	=7
4DD/) 4D	.	4A/]) 4f#	.	.	4aa\]	>
4r	.	4r	.	.	(8gg#\L	.
.	.	.	.	.	16ff#\Jk)	.
.	.	.	.	.	16r	.
4r	.	4r	.	.	(8ee\L	.
.	.	.	.	.	16dd\Jk)	.
.	.	.	.	.	16r	.
4E'\	.	4d'/ 4g#	.	.	(8cc#\L	.
.	.	.	.	.	16b\Jk)	.
.	.	.	.	.	16r	.
=8	=8	=8	=8	=8	=8	=8
*^	*	*	*	*	*	*
[2E/	4r	.	(2d/ 2g#	.	.	(2b/	.
.	(4EE\	.	.	.	.	.	.
4E/]	4AA\)	.	4c#/) 4a	.	.	4a/)	]
4r	4ryy	.	4r	.	.	4r	.
=9	=9	=9	=9	=9	=9	=9	=9
!	!	!	!LO:TX:i:b:t=con espressione	!	!	!	!
[1c#	2B\	.	(2e#X/ 2g#	.	p	2r	.
.	4A\	.	4f#/ 4a	.	<	[2cc#\	p
.	4G#\	.	4e#/ 4b	.	.	.	.
=10	=10	=10	=10	=10	=10	=10	=10
4c#/]	[2.F#\	.	4f#/ 4a	.	.	4cc#\]	.
2A/	.	.	4cc#\	.	.	(4f#/	<
.	.	.	4ff#\	.	.	4ff#\	.
4B/	4BB\ 4F#_	.	4gg#\)	.	[[	8ee\L	.
.	.	.	.	.	.	8dd\J	[[
!!LO:LB:g=original	!	!	!	!	!
=11	=11	=11	=11	=11	=11	=11	=11
.	.	.	(16qqff#/LL	.	.	.	.
.	.	.	16qqgg#/JJ)	.	.	.	.
4C#\ 4F#] 4A	4ryy	.	[2aa\	.	.	8cc#\L)	.
.	.	.	.	.	.	(8a\	.
4r	4ryy	.	.	.	.	8b\	.
.	.	.	.	.	.	8b#X\J	.
2C#/ (2B	4E#X\	.	(8aa\L]	.	>	[2cc#\)	.
.	.	.	8gg#\	.	.	.	.
.	4G#\	.	8ff#\	.	.	.	.
.	.	.	8ee#X\J	.	.	.	.
*v	*v	*	*	*	*	*	*
=12	=12	=12	=12	=12	=12	=12
4F#\ 4A)	.	4ff#\)	.	.	8cc#\]	.
.	.	.	.	.	(4dd\	p >
4r	.	4r	.	]	.	.
.	.	.	.	.	8cc#\	.
2r	.	2r	.	.	8bn/L	.
.	.	.	.	.	8a/	.
.	.	.	.	.	8g#/	.
.	.	.	.	.	8f#/J)	.
=13	=13	=13	=13	=13	=13	=13
*	*	*^	*	*	*	*
2c#\ 2e	.	(2a#X/	1f#	.	.	4f#/	.
.	.	.	.	.	.	4r	]
4B\ 4d	.	4b/	.	.	.	[2ff#\	mf
4A#X\ [4e	.	4cc#/	.	.	.	.	.
=14	=14	=14	=14	=14	=14	=14	=14
*^	*	*	*	*	*	*	*
4e/]	2B\	.	4f#/	2f#\	.	.	2ff#\]	.
4d/	.	.	4b/	.	.	.	.	.
[2c#/	4An\	.	4cc#/	[2cc#\	.	.	(4.cc#\	.
.	4G#\	.	4ee#X/	.	.	.	.	.
.	.	.	.	.	.	.	8b\	.
*v	*v	*	*	*	*	*	*	*
*	*	*v	*v	*	*	*	*
=15	=15	=15	=15	=15	=15	=15
4F#\ 4c#]	.	4cc#\]) 4ff#	.	.	4a/)	.
4En\ 4G#	.	(4cc#\	.	.	[4cc#\	.
2D\ 2F#	.	8aa\L	.	.	(8cc#\L]	.
.	.	8gg#\	.	.	8b\	.
.	.	8ff#\	.	.	8a\	.
.	.	8gg#\J	.	.	8b\J	.
!!LO:LB:g=original	!	!	!	!
=16	=16	=16	=16	=16	=16	=16
*^	*	*^	*	*	*	*
2G#/	[1C#	.	8ee#X/L)	4ryy	.	.	4cc#\)	.
.	.	.	8c#/	.	.	.	.	.
.	.	.	(8cc#/	4cc#\	.	.	4r	.
.	.	.	8c#/J	.	.	p	.	.
!	!	!	!LO:TX:i:b:t=cantabile	!	!	!	!	!
4B/	.	.	8e#X/L	4e#\	.	.	4r	.
.	.	.	8d/	.	.	.	.	.
!	!	!	!	!	!	!	!LO:MO:mod=!LO&colon;TX&colon;i&colon;t=cantabile	!
!	!	!	!	!	!	!	!LO:TX:a:t=cantabile	!
4A/	.	.	8f#/	4f#\	.	<	(4cc#\	p
.	.	.	8c#/J	.	.	.	.	.
=17	=17	=17	=17	=17	=17	=17	=17	=17
4G#/	2C#\]	.	8g#/L	4g#\	.	.	4e#X/	<
.	.	.	8c#/	.	.	.	.	.
[4F#/	.	.	8a/)	4a\	.	.	4f#/	.
.	.	.	8c#/J	.	.	.	.	.
2F#/]	4BB\	.	(<8cc#/L	4d\	.	.	4g#/	.
.	.	.	8b/)	.	.	[	.	.
.	4C#\	.	(<8b/	[4c#\	.	>	4a/)	[[
.	.	.	8a/J)	.	.	.	.	.
*v	*v	*	*	*	*	*	*	*
=18	=18	=18	=18	=18	=18	=18	=18
4C#\ 4E#X	.	(<8a/L	4.c#\]	.	.	(8cc#\L	>
.	.	8g#/)	.	.	.	8b\)	.
4FF#/ 4F#	.	(<8g#/	.	.	.	(8b\	.
.	.	8f#/J)	8B#X\	.	.	8a\J)	.
4CC#/ 4C#	.	4e#X/	4c#\	.	.	4g#/	.
(4BBBn/ 4BBn	.	(8g#/L	8d\L	.	] pp	(8b/L	.
.	.	8f#/J	8f#\J	.	.	8a/J	]
=19	=19	=19	=19	=19	=19	=19	=19
4CC#/) 4C#	.	4e#X/)	2.ryy	.	.	4g#/)	.
4r	.	4r	.	.	.	(4c#/	p
4r	.	4r	.	.	.	4cc#\)	.
!	!	!	!	!	!LO:MO:null:mod=.	!	!
(4BBB/ 4BB	.	(8g#/L 8b	8d\L	.	pp	4r	.
.	.	8a/J	8f#\J	.	.	.	.
*	*	*v	*v	*	*	*	*
=20	=20	=20	=20	=20	=20	=20
4CC#/) 4C#	.	4e#X/) 4g#	.	.	4r	.
4r	.	4r	.	.	(4c#/	pp
2r	.	2r	.	.	4cc#\)	.
.	.	.	.	.	4cc#\	.
!!LO:PB:g=original	!	!	!	!
=21	=21	=21	=21	=21	=21	=21
*^	*	*	*	*	*	*
!	!	!	!	!	!LO:MO:null:mod=p	!	!
[1AAA [<1AA	4ryy	.	8r	.	.	2cc#\	p
!	!	!	!	!	!LO:MO:null:mod=.	!	!
.	.	.	(>8en/L	.	p	.	.
.	4E\	.	8E</	.	.	.	.
.	.	.	8e/J	.	.	.	.
.	4F#\	.	8F#</L	.	.	(4dd\	<
.	.	.	8e/	.	.	.	.
.	4G#\	.	8G#</	.	.	4ee\)	.
.	.	.	8e/J	.	.	.	.
=22	=22	=22	=22	=22	=22	=22	=22
1AAA_ 1AA_	4A\	.	8A</L	.	.	(4cc#\	.
.	.	.	8A</	.	.	.	.
.	4G#\	.	8G#</	.	.	4ee\	.
.	.	.	8B</J	.	.	.	.
.	4F#\	.	8F#</L	.	.	4aa\)	.
.	.	.	8A</	.	.	.	.
.	4Fn\	.	8Fn</	.	<	4bb\	[[
.	.	.	8G#</J)	.	.	.	.
*v	*v	*	*	*	*	*	*
=23	=23	=23	=23	=23	=23	=23
.	.	.	.	.	(16qqaa/LL	>
.	.	.	.	.	16qqbb/JJ)	.
2AAA\] 2AA]	.	(<8E</L	.	.	2ccc#\	.
.	.	8A</	.	.	.	.
.	.	8f#</)	.	.	.	.
.	.	8e<'</J	.	[ >	.	.
2BBB\ 2BB	.	8d#X<'</L	.	.	(8bb\L	.
.	.	8c#<'</	.	.	8aa\	.
.	.	8B<'</	.	.	8gg#\	.
.	.	8A<'</J	.	]]	8ff#\J)	.
=24	=24	=24	=24	=24	=24	=24
1EE 1E	.	(>8E</L 8G#<	.	.	2ee\	.
.	.	8e/	.	<	.	.
.	.	8F#</ 8A<	.	.	.	.
.	.	8e/J	.	.	.	.
.	.	8A#X</L	.	.	(4eee\	]
.	.	8e/	.	.	.	.
.	.	8G#</ 8B<	.	.	4ddd\)	.
.	.	8e/J)	.	[[	.	.
!!LO:LB:g=original	!	!	!	!
=25	=25	=25	=25	=25	=25	=25
*	*	*^	*	*	*	*
1AA 1A	.	(8c#/L	2ryy	.	.	2ccc#\	.
.	.	8e/J	.	.	.	.	.
.	.	8ee/L	.	.	.	.	.
.	.	8e/J	.	.	.	.	.
.	.	8f#\L	4f#/	.	.	(4ddd\	<
.	.	8ee\	.	.	.	.	.
.	.	8g#\	4g#/	.	.	4eee\)	.
.	.	8ee\J	.	.	.	.	.
=26	=26	=26	=26	=26	=26	=26	=26
(2AAA/ 2AA	.	8a\L)	4ryy	.	.	4ccc#\	.
.	.	(8a\	.	.	.	.	.
.	.	8g#\	4g#/	.	.	4eee\	.
.	.	8b\J	.	.	.	.	.
4CC#/) 4C#	.	8a\L)	4ryy	.	.	[2aaa\	[ mf >
.	.	(<8a\	.	.	.	.	.
4CC#/ 4C#	.	8gn\	4ee#X/	.	.	.	.
.	.	8a\J	.	.	.	.	.
*	*	*v	*v	*	*	*	*
=27	=27	=27	=27	=27	=27	=27
4DD/ 4D	.	4f#\) 4ff#	.	.	4aaa\]	.
4r	.	4r	.	.	(8ggg#\L	.
.	.	.	.	.	16fff#\Jk)	.
.	.	.	.	.	16r	.
4r	.	4r	.	.	(8eee\L	.
.	.	.	.	.	16ddd\Jk)	.
.	.	.	.	.	16r	.
4E\	.	4d/ 4g#X	.	p	(8ccc#\L	.
.	.	.	.	.	16bb\Jk)	.
.	.	.	.	.	16r	.
=28	=28	=28	=28	=28	=28	=28
((2E\	.	(2d/ 2g# 2ee	.	.	(2bb\	.
4AA\)) 4A	.	4c#/) 4a	.	.	4aa\)	.
4r	.	4r	.	.	4r	]
=29||	=29||	=29||	=29||	=29||	=29||	=29||
*^	*	*	*	*	*	*
!	!	!	!	!	!	!	!LO:MO:null:mod=!LO&colon;DY&colon;ed=brack
!	!	!	!	!	!	!	!
!	!	!	!LO:TX:a:i:t=legatissimo sempre	!	!LO:MO:null:mod=p	!	!LO:MO:null:mod=p
4r	[1A	.	8r	.	.	2cc#\	.
!	!	!	!	!	!LO:MO:null:mod=.	!	!
.	.	.	(8e/L	.	p	.	.
!LO:MO:mod=4re	!	!	!	!	!	!	!
4r	.	.	8a/	.	.	.	.
.	.	.	8g#/J	.	.	.	.
!LO:MO:mod=8re	!	!	!	!	!	!	!
8r	.	.	4f#/	.	.	(4dd\	.
(8B/L	.	.	.	.	.	.	.
8e/	.	.	4g#/	.	.	4ee\)	<
8d/J	.	.	.	.	.	.	.
!!LO:LB:g=original	!	!	!	!	!
=30	=30	=30	=30	=30	=30	=30	=30
4c#/)	4A\]	.	4a/)	.	.	(8cc#\L	.
.	.	.	.	.	.	8dd#X\	.
4r	4ryy	.	4r	.	.	8ff#\	.
.	.	.	.	.	.	8ee\J	.
2r	2ryy	.	2r	.	.	8gg#\L	.
.	.	.	.	.	.	8bb\	.
.	.	.	.	.	.	8aa\	.
.	.	.	.	.	.	8bb\J)	[[
*v	*v	*	*	*	*	*	*
=31	=31	=31	=31	=31	=31	=31
*	*	*^	*	*	*	*
2F#\	.	4r	2.A\	.	.	(8bb#X\L	>
.	.	.	.	.	.	8ddd#X\	.
.	.	(4e/	.	.	.	8ccc#\	.
.	.	.	.	.	.	8gg#\J	.
2BB/	.	8d#X/L	.	.	.	8bbn\L	.
.	.	8c#/	.	.	.	8aa\	.
.	.	8c##X/	8B\L	.	.	8gg#\	.
.	.	8d#/J	8A\J	.	.	8ff#\J)	.
*	*	*v	*v	*	*	*	*
=32	=32	=32	=32	=32	=32	=32
*^	*	*	*	*	*	*
.	8qEE/	.	.	.	.	.	.
8r	1E	.	8G#/) 8e	.	.	(2..ee\	.
(8A/L	.	.	(8f#/L	.	.	.	.
8c#/	.	.	8a/	.	.	.	.
8B/J	.	.	8g#/J	.	.	.	.
8B/L	.	.	8g#/L	.	.	.	.
8F#/	.	.	8a/	.	.	.	.
8F##X/	.	.	8cc#/	.	.	.	.
8G#/J	.	.	8b/J	.	.	8ddn\)	]
=33	=33	=33	=33	=33	=33	=33	=33
4A/)	[1A	.	8a/L)	.	.	(2cc#\	.
.	.	.	(8e/	.	.	.	.
!LO:MO:mod=4re	!	!	!	!	!	!	!
4r	.	.	8a/	.	.	.	.
.	.	.	8g#/J	.	.	.	.
!LO:MO:mod=8re	!	!	!	!	!	!	!
8r	.	.	4f#/	.	.	4dd\	.
(8B/L	.	.	.	.	.	.	.
8e/	.	.	4g#/	.	.	4ee\)	.
8d/J	.	.	.	.	.	.	.
=34	=34	=34	=34	=34	=34	=34	=34
4c#/)	4A\]	.	4a/)	.	.	(8cc#\L	.
.	.	.	.	.	.	8dd#X\	.
4r	4ryy	.	4r	.	.	8ff#\	.
.	.	.	.	.	.	8ee\J	.
4r	2ryy	.	4r	.	.	8ee\L	.
.	.	.	.	.	.	8ee#X\	.
(4C#\ 4B	.	.	(4e#X/	.	.	8aa\	.
.	.	.	.	.	.	8gg#\J)	.
!!LO:LB:g=original	!	!	!	!	!
=35	=35	=35	=35	=35	=35	=35	=35
*	*	*below	*	*	*	*	*
8A/L	4D\	2 5	8f#/L	2	<	2.ff#\	>
8B/	.	1	8g#/	3	.	.	.
8d/	4BB\	5	8b/	1 5	.	.	.
8c#/J	.	1	8a/J	.	.	.	.
8B/L	4En\	3 5	8g#/L	1	.	.	.
8c#/	.	2	8a/	3	.	.	.
!	!	!	!	!	!	!	!LO:MO:null:mod=.
8e/	4r	1	8cc#/	2	.	4g#/	]]
[8d/J	.	.	8b/J)	.	[[	.	.
=36	=36	=36	=36	=36	=36	=36	=36
*	*	*	*^	*	*	*	*
!	!	!	!	!	!	!	!	!LO:MO:null:mod=.
4d/])	2.A\	.	(>8b/L	4ryy	1	.	(2g#t/	>
.	.	.	8aa#X/	.	.	.	.	.
4fn/	.	.	8ccc#/	4dd\	.	>	.	.
.	.	.	8bb/J	.	.	.	.	.
.	.	.	.	.	.	.	16qqf##X/LL	.
.	.	.	.	.	.	.	16qqg#/JJ	.
4e/	.	.	4aan/)	4cc#\	.	.	4a/)	.
4r	4ryy	.	4r	4ryy	.	]	4r	]
*v	*v	*	*	*	*	*	*	*
*	*	*v	*v	*	*	*	*
=37	=37	=37	=37	=37	=37	=37
(8CCn\L	.	(8E#X</L	.	p <	2.ccc#\	f >
8DD#X\	.	8F#</	.	.	.	.
8FF#\	.	8A</	.	.	.	.
8EE#X\J)	.	8G#</J)	.	.	.	.
(8EE#\L	.	(8G#</L	.	.	.	.
8FF#\	.	8A</	.	.	.	.
8AA\	.	8c#</	.	.	(4ee#X\	.
8GG#\J)	.	8B</J)	.	.	.	.
=38	=38	=38	=38	=38	=38	=38
*^	*	*^	*	*	*	*
*	*	*above	*	*	*	*	*	*
4B\	2FF#\	1	(8B</L	2ryy	.	.	4ff#\)	.
.	.	3	8B#X</	.	.	.	.	.
4A\	.	2 5	8dn</	.	.	.	(4fff#\	]
.	.	4	8c#</J	.	.	.	.	.
4G#\	2BBn\	.	8d/L	4d\	1	[	4eeen\	.
.	.	.	8a#X/	.	3	.	.	.
[>4F#\	.	.	8cc#/	[4f#\	2 5	.	4ddd\	.
.	.	.	8b/J	.	.	.	.	.
*	*	*	*v	*v	*	*	*	*
=39	=39	=39	=39	=39	=39	=39	=39
2C#\	4F#\]	.	8f#/L]) 8an	.	.	8ccc#\L)	.
.	.	.	(>>8c#/ 8a	.	>	(8aa\	.
.	4ryy	.	8B/ 8g#	.	.	8bb\	>
.	.	.	8A/J 8f#	.	.	8bb#X\J	.
2CC#\	4ryy	.	8G#/L 8e#X	.	.	8ccc#\L	.
.	.	.	8B/ 8d	.	.	8ee#X\	.
.	4E#X\	.	8E#X</ 8c#	.	.	8aa\	.
.	.	.	8B/J)	.	]]	8gg#\J)	]]
*v	*v	*	*	*	*	*	*
!!LO:PB:g=original	!	!	!	!	!	!
=40	=40	=40	=40	=40	=40	=40
8C#\L 8c#	.	8g#/	.	.	8ee#X`\	.
(16d\L	.	8r	.	p	8r	.
16c#\JJ	.	.	.	.	.	.
16d\LL	.	4r	.	.	4r	.
16c#\	.	.	.	.	.	.
16d\	.	.	.	.	.	.
16c#\JJ)	.	.	.	.	.	.
(16B#X\LL	.	2r	.	.	4r	.
16c#\	.	.	.	.	.	.
16d\	.	.	.	.	.	.
16c#\JJ	.	.	.	.	.	.
16B#\LL	.	.	.	.	4cc#^\	.
16c#\	.	.	.	.	.	.
16B#\	.	.	.	.	.	.
16c#\JJ)	.	.	.	.	.	.
=41	=41	=41	=41	=41	=41	=41
*^	*	*	*	*	*	*
4Bn/	(>16B\LL	.	4r	.	.	8c#/L	.
.	16c#\	.	.	.	.	.	.
.	16B#X\	.	.	.	.	(16d#X/L	<
.	16c#\JJ)	.	.	.	.	16e#X/JJ	.
4A/	(>16A\LL	.	(4cc#^\	.	.	16f#/LL	.
.	16c#\	.	.	.	.	16g#/	.
.	16B#\	.	.	.	.	16a/	.
.	16c#\JJ)	.	.	.	.	16b/JJ)	.
4G#/	(>16G#\LL	.	8c#/L	.	.	(8cc#\L	[ >
.	16c#\	.	.	.	.	.	.
.	16B#\	.	16d#X/L	.	.	8b\J)	.
.	16c#\JJ)	.	16e#X/JJ	.	.	.	.
!	!	!	!	!	!	!LO:MO:mod=*null:null	!
*	*	*	*	*	*	*Xtuplet	*
4F#/	(16F#\LL	.	16f#/LL	.	.	20r	.
.	.	.	.	.	.	(10b/L	.
.	16c#\	.	16g#/	.	.	.	.
.	16B#\	.	16a/	.	.	.	.
.	.	.	.	.	.	20a/Jk)	.
.	16c#\JJ)	.	16bn/JJ)	.	.	.	.
.	.	.	.	.	.	20r	]
*v	*v	*	*	*	*	*	*
=42	=42	=42	=42	=42	=42	=42
(8C#\L	.	(8e#X/L 8cc#	.	.	(4g#/	.
16D#X\L	.	8g#/J) 8b	.	.	.	.
16E#X\JJ	.	.	.	.	.	.
16F#\LL	.	(8c#/L 8b	.	.	8f#/)	.
16G#\	.	.	.	.	.	.
16A\	.	8f#/J) 8a	.	.	8r	.
16B\JJ	.	.	.	.	.	.
16c#\LL	.	(4e#/ 4g#	.	.	4r	.
16dn\	.	.	.	.	.	.
16c#\	.	.	.	.	.	.
16B\JJ	.	.	.	.	.	.
16A\LL	.	8f#/)	.	.	4aa^\	.
16c#\	.	.	.	.	.	.
16A\	.	8r	.	.	.	.
16G#\JJ)	.	.	.	.	.	.
!!LO:LB:g=original	!	!	!	!	!	!
=43	=43	=43	=43	=43	=43	=43
*^	*	*	*	*	*	*
4Gn/	(>16G\LL	.	4r	.	.	8a\L	.
.	16A\	.	.	.	.	.	.
.	16G#X\	.	.	.	.	(16b\L	<
.	16A\JJ)	.	.	.	.	16cc#\JJ	.
4F#/	(>16F#\LL	.	(4aa^\	.	.	16dd\LL	.
.	16A\	.	.	.	.	16ee\	.
.	16G#\	.	.	.	.	16ff#\	.
.	16A\JJ)	.	.	.	.	16ggn\JJ)	.
4E/	(>16E\LL	.	8a\L	.	.	(8aa\L	[ >
.	16A\	.	.	.	.	.	.
.	16G#\	.	16b\L	.	.	16gg\Jk)	.
.	16A\JJ)	.	16cc#\JJ	.	.	16r	.
4D/	(>16D\LL	.	16dd\LL	.	.	(8gg\L	.
.	16A\	.	16ee\	.	.	.	.
.	16G#\	.	16ff#\)	.	.	16ff#\Jk)	.
.	16A\JJ)	.	16ff#'\JJ	.	.	16r	]
=44	=44	=44	=44	=44	=44	=44	=44
4E/	(>16E\LL	.	4r	.	.	8f#/L	.
.	16F#\	.	.	.	.	.	.
.	16E#X\	.	.	.	.	(16g#X/L	<
.	16F#\JJ)	.	.	.	.	16a#X/JJ	.
4D/	(>16D\LL	.	(4ff#^\	.	.	16b\LL	.
.	16F#\	.	.	.	.	16cc#\	.
.	16E#\	.	.	.	.	16dd\	.
.	16F#\JJ)	.	.	.	.	16ee\JJ)	.
!	!LO:SIC:s=(16C#\LL	!	!	!	!	!	!
4C#/	16C#\LL	.	8f#/L	.	.	(8ff#\L	[ >
.	16F#\	.	.	.	.	.	.
.	16E#\	.	16g#X/L	.	.	16ee\Jk)	.
!	!LO:SIC:s=16F#\JJ)	!	!	!	!	!	!
.	16F#\JJ	.	16a#X/JJ	.	.	16r	.
!	!LO:SIC:s=(16BB\LL	!	!	!	!	!	!
4BB/	16BB\LL	.	16b\LL	.	.	(8ee\L	.
.	16F#\	.	16cc#\	.	.	.	.
.	16E#\	.	16dd\)	.	.	16dd\Jk)	.
!	!LO:SIC:s=16F#\JJ)	!	!	!	!	!	!
.	16F#\JJ	.	16dd\JJ	.	.	16r	]
=45	=45	=45	=45	=45	=45	=45	=45
!	!LO:SIC:s=(16C\LL	!	!	!	!	!	!
4Cn/	16C\LL	.	(8d/L	.	.	(4dd\	>
.	16A\	.	.	.	.	.	.
.	16D\	.	16e/L	.	.	.	.
!	!LO:SIC:s=16A\JJ)	!	!	!	!	!	!
.	16A\JJ	.	16f#/JJ	.	.	.	.
!	!LO:SIC:s=(16BB\LL	!	!	!	!	!	!
4BB/	16BB\LL	.	16gn/LL	.	<	8ggn\)	.
.	16Gn\	.	16a/	.	.	.	.
.	16D\	.	16b/	.	.	8r	]
!	!LO:SIC:s=16G\JJ)	!	!	!	!	!	!
.	16G\JJ	.	16d/JJ	.	.	.	.
!	!LO:SIC:s=(16BB\LL	!	!	!	!	!	!
4BB/	16BB\LL	.	8c#X/L	.	.	(4cc#\	>
.	16G#X\	.	.	.	.	.	.
.	16C#X\	.	16d#X/L	.	.	.	.
!	!LO:SIC:s=16G#\JJ)	!	!	!	!	!	!
.	16G#\JJ	.	16e#X/JJ	.	.	.	.
!	!LO:SIC:s=(16AA\LL	!	!	!	!	!	!
4AA/	16AA\LL	.	16f#/LL	.	.	8ff#\)	.
.	16F#\	.	16g#X/	.	.	.	.
.	16C#\	.	16a/	.	.	8r	]
!	!LO:SIC:s=16F#\JJ)	!	!	!	!	!	!
.	16F#\JJ	.	16b/JJ)	.	[[	.	.
*v	*v	*	*	*	*	*	*
!!LO:LB:g=original	!	!	!	!	!	!
=46	=46	=46	=46	=46	=46	=46
1DD 1D	.	(8cc#\L	.	f	8ff#\L	<
.	.	16b\L	.	.	(16gg#X\L	.
.	.	16a\JJ	.	.	16aa\JJ	.
.	.	16g#X/LL	.	>	16bb\LL	.
.	.	16gn/	.	.	16ccc#\	.
.	.	16f#/	.	.	16ddd\	.
.	.	16en/JJ	.	.	16eee\JJ)	.
.	.	16d/LL	.	.	(8fff#\L	.
.	.	16f#/	.	.	.	.
.	.	16e#X/	.	.	8bb#X\)	[ >
.	.	16f#/JJ	.	.	.	.
.	.	16e#/LL	.	.	(8bb#\	.
.	.	16f#/	.	.	.	.
.	.	16g#X/	.	.	8bb#\J)	.
.	.	16f#/JJ	.	.	.	.
=47	=47	=47	=47	=47	=47	=47
*ped	*below	*	*	*	*	*
N(8CC#/L	5	8c#/) 8e#X	.	.	4ccc#\	.
!	!	!	!	!LO:HP:a	!	!
16GG#/L	3	8r	.	] <	.	.
16C#/JJ	2	.	.	.	.	.
*	*above	*	*	*	*	*
16E#X\LL	1	4r	.	.	4r	]
16F##X\	3	.	.	.	.	.
16G#\	2	.	.	.	.	.
16c#\JJ	1	.	.	.	.	.
4r	.	16en\LL	2	.	2r	.
.	.	16e#X\	3	.	.	.
.	.	16f##X\	1	.	.	.
.	.	16g#\JJ	2	.	.	.
4r	.	16cc#\LL	4	.	.	.
.	.	16ee#X\	1	.	.	.
.	.	16gg#\	.	[	.	.
.	.	16ccc#\JJN)	.	.	.	.
*Xped	*	*	*	*	*	*
=48	=48	=48	=48	=48	=48	=48
*	*	*^	*	*	*	*
*ped	*	*	*	*	*	*	*
2BBB/ 2BB	.	(16eeen/LL	8ff#\ 8aa	.	f	1r	.
.	.	16ddd/	.	.	.	.	.
.	.	16aa/	8ryy	.	.	.	.
.	.	16ff#/JJ)	.	.	.	.	.
.	.	(16gg#/LL	8a\ 8dd	.	.	.	.
.	.	16ff#/	.	.	.	.	.
.	.	16dd/	8ryy	.	.	.	.
.	.	16a/JJ)	.	.	.	.	.
*Xped	*	*	*	*	*	*	*
*ped	*	*	*	*	*	*	*
2EE/ 2E	.	(16ee/LL	8g#\ 8cc#	.	.	.	.
.	.	16b/	.	.	.	.	.
.	.	16g#/	8ryy	.	.	.	.
.	.	16d/JJ)	.	.	.	.	.
.	.	(16e/LL	8G#\ 8c#	.	.	.	.
.	.	16B/	.	.	.	.	.
.	.	16G#</	8ryy	.	.	.	.
.	.	16D</JJ	.	.	.	.	.
*Xped	*	*	*	*	*	*	*
*	*	*v	*v	*	*	*	*
=49	=49	=49	=49	=49	=49	=49
4AAA\ 4AA	.	4C#</) 4A<	.	.	8A`/L	f
.	.	.	.	.	(16B/L	.
.	.	.	.	.	16c#/JJ	.
4r	.	4r	.	.	16d/LL	.
.	.	.	.	.	16e/	.
.	.	.	.	.	16f#/	.
.	.	.	.	.	16g#/JJ	.
*	*	*	*	*	*tuplet	*
2r	.	2r	.	.	12a/L)	.
.	.	.	.	.	12e/	.
.	.	.	.	.	12f#/J	.
.	.	.	.	.	12g#/L	.
.	.	.	.	.	12a/	.
.	.	.	.	.	12b/J	.
=50	=50	=50	=50	=50	=50	=50
(<<16AA/LL	.	(>16c#/LL 16a	.	f	(4.cc#\	.
16BB/	.	16d/	.	.	.	.
16C#/	.	16e/	.	.	.	.
16D/JJ	.	16f#/JJ	.	.	.	.
16E\LL	.	16g#/LL	.	.	.	.
16F#\	.	16a/	.	.	.	.
16G#\	.	16b/	.	.	8a/)	.
16A\JJ	.	16cc#/JJ	.	.	.	.
16B\LL	.	16dd/LL	.	.	(4e/	.
16c#\	.	16ee/	.	.	.	.
16d\	.	16ff#/	.	.	.	.
16e\JJ	.	16gg#/JJ	.	.	.	.
16f#>\LL	.	16aa/LL	.	.	4d/)	.
16g#>\	.	16bb/	.	.	.	.
16a>\	.	16ccc#/	.	.	.	.
16b>\JJ	.	16ddd/JJ	.	.	.	.
=51	=51	=51	=51	=51	=51	=51
4cc#>\)	.	4ee/) 4aa 4eee	.	.	16c#/LL	.
.	.	.	.	.	16d/	.
.	.	.	.	.	16e/	<
.	.	.	.	.	16f#/JJ	.
4r	.	4r	.	.	16g#/LL	.
.	.	.	.	.	16a/	.
.	.	.	.	.	16b/	.
.	.	.	.	.	16cc#/JJ	.
*ped	*	*	*	*	*	*
(>16a>\LL	.	(16ff#/LL	.	sfz	16dd#X\LL	.
16b>\	.	16aa/	.	.	16ee\	.
16a>\	.	16ff#/	.	.	16ff#\	.
16f#>\JJ	.	16dd#X/JJ	.	.	16gg#\JJ	.
16d#X\LL	.	16b/LL	.	.	16aa\LL	.
16B\	.	16a/	.	.	16bb\	.
16A\	.	16f#/	.	.	16ccc#\	.
16F#\JJ	.	16a/JJ	.	.	16ddd#X\JJ	[[
=52	=52	=52	=52	=52	=52	=52
*Xped	*	*	*	*	*	*
4E\)	.	4e/) 4g#	.	.	[4eee\	f
4AAA#X/ 4AA#X	.	4e/ 4gn	.	.	16eee\LL]	.
.	.	.	.	.	(16eee\	.
.	.	.	.	.	16fff#\	.
.	.	.	.	.	16eee\JJ)	.
4BBB/ 4BB	.	4dn/ 4f#	.	.	16dddn`\LL	.
.	.	.	.	.	(16ddd\	.
.	.	.	.	.	16eee\	.
.	.	.	.	.	16ddd\JJ)	.
4EE/ 4E	.	4d/ 4e	.	.	16gg#'\LL	.
.	.	.	.	.	(16gg#\	.
.	.	.	.	.	16aa\	.
.	.	.	.	.	16gg#\JJ)	.
!!LO:LB:g=original	!	!	!	!	!	!
=53	=53	=53	=53	=53	=53	=53
!	!	!	!	!	!LO:TX:a:t=P:problem:mixed beam	!
4AAAn/ 4AAn	.	4c#/ 4e 4a	.	.	16aa`\LL	.
.	.	.	.	.	(16A/	.
.	.	.	.	.	16B/	.
.	.	.	.	.	16c#/JJ	.
4r	.	4r	.	.	16d/LL	.
.	.	.	.	.	16e/	.
.	.	.	.	.	16f#/	.
.	.	.	.	.	16g#/JJ	.
2r	.	2r	.	.	12a/L)	.
.	.	.	.	.	12e/	.
.	.	.	.	.	12f#/J	.
.	.	.	.	.	12g#/L	.
.	.	.	.	.	12a/	.
.	.	.	.	.	12b/J	.
=54	=54	=54	=54	=54	=54	=54
*	*	*^	*	*	*	*
(16AA/LL	.	(16c#/LL 16a	8ryy	.	.	4cc#\	.
16BB/	.	16d/	.	.	.	.	.
16C#/	.	16e/	8ryy	.	.	.	.
16D/JJ	.	16f#/JJ	.	.	.	.	.
16E\LL	.	16g#/LL	8ryy	.	.	4a/	.
16F#\	.	16a/	.	.	.	.	.
16G#\	.	16b/	8ryy	.	.	.	.
16A\JJ	.	16cc#/JJ	.	.	.	.	.
16B\LL	.	16dd/LL	8ryy	.	.	[2aaa\	sfz
16c#\	.	16ee/	.	.	.	.	.
16d\	.	16ff#/	8ryy	.	.	.	.
16e\JJ	.	16gg#/JJ	.	.	.	.	.
16f#\LL	.	16aa/LL	8aa\L	.	.	.	.
16g#\J	.	16bb/	.	.	.	.	.
[8a\J	.	16bb#X/	8ggn\J	.	.	.	.
.	.	16ccc#/JJ	.	.	.	.	.
*	*	*v	*v	*	*	*	*
=55	=55	=55	=55	=55	=55	=55
*	*	*^	*	*	*	*
4.d\) 4.a]	.	4.ff#\) 4.ddd	2ryy	.	.	8aaa\L]	.
.	.	.	.	.	.	(16ggg#\L	f
.	.	.	.	.	.	16fff#\JJ)	.
.	.	.	.	.	.	16eee\LL	.
.	.	.	.	.	.	16ddd\	.
8D\ 8A	.	8f#/ 8bn	.	.	p	16ccc#\	.
.	.	.	.	.	.	16bb\JJ	.
8E\ 8A	.	(16cc#/LL	8e\	.	.	16aa\LL	.
.	.	16dd/	.	.	.	16gg#\	.
8r	.	16dd#X/	8ryy	.	<	16ff#\	.
.	.	16ee/JJ	.	.	.	16ee\JJ	.
4E\ 4d	.	16ee#X/LL	16g#\ 16ddn	.	.	16dd#X\LL	.
.	.	16ff#/	8.ryy	.	.	16ddn\	.
.	.	16ff##X/	.	.	.	16cc#\	.
.	.	16gg#X/JJ)	.	.	.	16b\JJ	.
=56	=56	=56	=56	=56	=56	=56	=56
*^	*	*	*	*	*	*	*
2A\	4AA\	1-5	(20gg#/LL	4dd\	.	.	(20b\LL	.
.	.	.	20aa/	.	.	.	20cc#\	.
.	.	.	20gg#/	.	.	.	20b\	.
.	.	.	20ff##X/	.	.	.	20a#X\	.
.	.	.	20gg#/JJ	.	.	.	20b\JJ	.
!	!LO:MO:mod=4r	!	!	!	!	!	!	!
.	4ryy	.	8.gg#/L	4b\	.	[ >	8.dd\L)	.
.	.	.	16aa/Jk	.	.	.	16cc#\Jk	.
4fn/	4ryy	.	4aa/)	4cc#\	.	.	4an/	.
!	!LO:MO:mod=4ryy	!	!	!	!	!	!	!
4e/	4r	.	4r	4ryy	.	]	4r	.
*v	*v	*	*	*	*	*	*	*
*	*	*v	*v	*	*	*	*
!!LO:PB:g=original	!	!	!	!	!	!
=57||	=57||	=57||	=57||	=57||	=57||	=57||
!!!OMD:
!!!OMD-mod: Sostenuto
!LO:TX:a:i:t=e legatissimo:mod=legatissimo	!	!LO:TX:a:B:t=Sostenuto.:mod=	!	!	!LO:TX:a:B:t=Sostenuto.:mod=	!
2F#\	.	(>2e/ 2a#X	.	pp	2cc#\	p
4Fn\	.	4d/ 4b	.	.	(4dd\	<
4E\	.	4g#/ [4cc#	.	.	4ee\)	.
=58	=58	=58	=58	=58	=58	=58
*	*	*^	*	*	*	*
4A\	.	4an/ 4cc#]	2ryy	.	.	(4cc#\	.
4G#\ 4B	.	4e/ 4b	.	.	.	4ee\	.
4F#X\ 4c#	.	4a/	2f#\	.	.	4aa\)	.
4D\ 4d	.	[4g#/	.	.	.	4bb\	.
=59	=59	=59	=59	=59	=59	=59	=59
2C#\ 2c#	.	4g#/]	2e#X\	.	.	2ccc#\	.
.	.	2cc#/	.	.	.	.	.
4F#\	.	.	2f#\	.	.	(8bb\L	[ >
.	.	.	.	.	.	8aa\	.
4D\	.	4b/	.	.	.	8gg#\	.
.	.	.	.	.	.	8ff#\J)	.
*	*	*v	*v	*	*	*	*
=60	=60	=60	=60	=60	=60	=60
4C#/	.	2g#/ [2cc#	.	.	(2ee#X\	]]
4c#\	.	.	.	.	.	.
4A\	.	4a/ 4cc#]	.	.	4een\)	.
4B\	.	4f#/) 4b	.	.	4dd\	.
=61	=61	=61	=61	=61	=61	=61
*	*	*^	*	*	*	*
4c#\	.	(>4e#X/ 4g#	2ryy	.	.	2cc#\	.
4F#\	.	4en/ 4a#X	.	.	.	.	.
4Fn\	.	4b/	2d\	.	<	(4dd\	.
4E\	.	4g#/	.	.	.	4ee\)	.
=62	=62	=62	=62	=62	=62	=62	=62
4AA/	.	4c#/ 4an	4ryy	.	.	(4cc#\	.
4GGn/	.	4b-X/	2cn\	.	.	4ee\)	.
4FFn/	.	4a/	.	.	.	[2aa\	.
4AA/	.	[4fn/)	4c#X\	.	.	.	.
=63	=63	=63	=63	=63	=63	=63	=63
!LO:TX:a:i:t=espress.	!	!	!	!	!	!	!
4BB-X/	.	(8d\L 8f]	2ryy	.	.	4aa\]	.
.	.	8f#X\	.	.	.	.	.
!	!	!	!	!	!	!LO:MO:mod=!LO&colon;TX&colon;i&colon;t=espress.	!
!	!	!	!	!	!	!LO:TX:b:t=espress.	!
4r	.	8gn\	.	.	.	(8ggn\L	.
.	.	8a\J)	.	.	.	16ffn\Jk)	.
.	.	.	.	.	.	16r	.
!	!	!	!	!	!LO:TX:t=cresc.:dur=6eqhs:ext=ud:problem:text with extention lines	!	!
4r	.	(8cc#X/L	4b-X\	.	<	(8ee\L	.
.	.	16dd/Jk)	.	.	.	16dd\Jk)	.
.	.	16r	.	.	.	16r	.
(8Cn\L	.	(8aa/L	8dd#X\L	.	.	(8ccn\L	.
[8cn\J)	.	8ggn/J)	8ee\J	.	.	16b-X\Jk)	.
.	.	.	.	.	.	16r	.
!!LO:LB:g=original	!	!	!	!	!	!	!
=64	=64	=64	=64	=64	=64	=64	=64
*^	*	*	*	*	*	*	*
2cn/]	4Fn\	.	(8ffn/L	2a\	.	.	4a/	.
.	.	.	8ee/	.	.	.	.	.
.	4F#X\	.	8ee-X/	.	.	.	4r	.
.	.	.	8dd/J)	.	.	.	.	.
4.Bn/	4Gn\	.	(4.dd^/	(8gn\L	.	.	2r	.
.	.	.	.	8f#\	.	.	.	.
.	8G#X\L	.	.	8fn\	.	.	.	.
[8c#X/	8A\J	.	8cc#X/	8en\J)	.	.	.	.
*v	*v	*	*	*	*	*	*	*
*	*	*v	*v	*	*	*	*
=65	=65	=65	=65	=65	=65	=65
8A#X\L 8c#X]	.	2e/) 2f#X 2cc#	.	f	(4.fff#\	f
8FF#\ 8F#	.	.	.	.	.	.
8GG#\ 8G#	.	.	.	.	.	.
8AA#X\J 8A#	.	.	.	.	8eee\)	>
8BB/L 8B	.	4d/ 4f# 4dd	.	.	(4ddd\	.
8AAn/ 8An	.	.	.	.	.	.
8GG#/ 8G#	.	4d/ 4e 4b 4ee	.	.	8ccc#\L	.
8EE/J 8E	.	.	.	.	8bb\J)	.
=66	=66	=66	=66	=66	=66	=66
8AA\L 8A	.	4c#/ 4a 4cc#	.	.	(2ee\	.
8BB\ 8B	.	.	.	.	.	.
8AA\ 8A	.	4e/ 4b 4ee	.	.	.	.
8GG#\J 8G#	.	.	.	.	.	.
8FF#/L 8F#	.	4a\ 4cc# 4ff# 4aa	.	.	4ff#\)	]
8EE/ 8E	.	.	.	.	.	.
8DD#X/ 8D#X	.	4b\ 4ff# 4gg# 4bb	.	.	(8b\L	.
8DDn/J 8Dn	.	.	.	.	8ff#\J	.
=67	=67	=67	=67	=67	=67	=67
*	*	*^	*	*	*	*
8CC#/L 8C#	.	(4.cc#/ 4.ccc#	4ee#X\	.	.	8cc#\L)	.
8CCC#/ 8CC#	.	.	.	.	.	(8cc#\	.
8DDD#X/ 8DD#X	.	.	8ff#\L	.	.	8aa\	.
8EEE#X/J 8EE#X	.	8cc#/) 8bb	8gg#\J	.	>	8gg#\J	.
8FFF#/L 8FF#	.	(8bb/L	8cc#\L	.	.	8ff#\L)	.
8GGG#/ 8GG#	.	8aa/	8ff#\J	.	.	(8cc#\	.
8BBB/ 8BB	.	8gg#/	[4g#\	.	]]	8een\	.
8BBB#X/J 8BB#X	.	8ff#/J)	.	.	.	8dd\J	.
=68	=68	=68	=68	=68	=68	=68	=68
8CC#/ 8C#	.	(8ee#X/L	8g#\]	.	.	8cc#\)	.
8r	.	8cc#/ 8ff#	4a\	.	.	8r	.
[2C#\ [2c#	.	8bn/ 8dd	.	.	.	4r	.
.	.	8b/J 8een	4g#\	.	.	.	.
.	.	8a/L 8cc#	.	.	.	2r	.
.	.	8a/ 8dd	4f#\	.	.	.	.
8C#\L] 8c#]	.	8g#/ 8b	.	.	.	.	.
8BBn\J 8Bn	.	8g#/J) 8cc#	8e#X\	.	.	.	.
*	*	*v	*v	*	*	*	*
!!LO:LB:g=original	!	!	!	!	!	!
=69	=69	=69	=69	=69	=69	=69
8AA#X\L 8A#X	.	2en/ 2f# 2cc#	.	f	(4.fff#\	.
8FF#\ 8F#	.	.	.	.	.	.
8GG#\ 8G#	.	.	.	.	.	.
8AA#\J 8A#	.	.	.	.	8eee\)	.
!	!	!	!	!	!LO:TUP:a:problem:klamra łukowa i cyfra	!
8BB\L 8B	.	4d/ 4f# 4dd	.	.	10ddd\L	.
.	.	.	.	.	10eee\	.
8AAn/ 8An	.	.	.	.	.	.
.	.	.	.	.	10ddd\	.
8GG#/ 8G#	.	4d/ 4e 4b 4ee	.	.	.	.
.	.	.	.	.	10ccc#\	.
8EE/J 8E	.	.	.	.	.	.
.	.	.	.	.	10bb\J	.
=70	=70	=70	=70	=70	=70	=70
*	*	*^	*	*	*	*
!LO:MO:null:mod=!LO&colon;TX&colon;i&colon;t=allargando	!	!	!	!	!	!	!
!	!	!	!	!	!	!LO:TX:a:i:t=allargando	!
8AA\L 8A	.	4c#/ 4a 4cc#	2ryy	.	.	1aa	<[
8AA\ 8A	.	.	.	.	.	.	.
8GGn\ 8Gn	.	4e/ 4a 4cc# 4ee	.	.	.	.	.
8AA\J 8A	.	.	.	.	.	.	.
8FF#/L 8F#	.	(2a/ 2aa	4dd\	.	.	.	.
!LO:TX:a:i:t=allargando:mod=	!	!	!	!	!	!	!
8AAn/ 8An	.	.	.	.	.	.	.
8FFn/ 8Fn	.	.	4ee-X\	.	.	.	.
8FFFn/J 8FFn	.	.	.	.	.	.	.
=71	=71	=71	=71	=71	=71	=71	=71
8BBB-X/L 8BB-X	.	8b-X/L 8dd 8bb-X	4ryy	.	.	(8ffn\L	f
8DD/ 8D	.	8ff#X/	.	.	.	8bb-X\	.
8EE-X/ 8E-X	.	8aa/	4b-\	.	.	8b-X\	.
8EEn/J 8En	.	8ggn/J	.	.	.	8ccn\J)	.
8FFn/L 8Fn	.	8ffn/L	8a\L	.	.	(2ff\	>
8GGn/ 8Gn	.	8ee-X/	8b-\	.	.	.	.
8GG#X/ 8G#X	.	8ddn/	8bn\	.	.	.	.
8AA/J 8A	.	8ccn/J	8e-X\J	.	.	.	.
=72	=72	=72	=72	=72	=72	=72	=72
8BB-X/L 8B-X	.	4.b-X/	4d\	.	.	4b-X\)	.
8AA-X/ 8A-X	.	.	.	.	.	.	.
8GG-X/ 8G-X	.	.	4e-X\ 4g-X	.	>	4r	]
8EE-X/J 8E-X	.	8an/) 8ccn	.	.	.	.	.
4BBB-X/ 4BB-	.	2fn/ 2dd	(>4.d\ 4.b-	.	.	2r	.
4B-\	.	.	.	.	.	.	.
.	.	.	8a\)	.	]	.	.
!!LO:LB:g=original	!	!	!	!	!	!	!
=73	=73	=73	=73	=73	=73	=73	=73
!!!OMD:
!!!OMD-mod: a tempo
*	*	*	*^	*	*	*	*
!	!	!LO:TX:a:B:t=a tempo:mod=	!	!	!	!	!LO:TX:a:B:t=a tempo:mod=	!
4Bn\	.	[1cc#X	4e#X/ 4g#X	2ryy	.	p	2r	.
4A#X\	.	.	4f#/	.	.	.	.	.
4An\	.	.	4f##X/	[<2en\	.	.	[2cc#\	p
4G#X\	.	.	4g#/	.	.	.	.	.
*	*	*	*v	*v	*	*	*	*
=74	=74	=74	=74	=74	=74	=74	=74
4Gn\	.	(4a/ 4cc#]	2en\]	.	.	4cc#\]	.
2F#\	.	2a#X/	.	.	.	(4ff#\	.
.	.	.	4c#\	.	.	4ee\	.
4BB/	.	4b/	4d\	.	.	4dd\	.
=75	=75	=75	=75	=75	=75	=75	=75
4C#/	.	4an/)	4f#\	.	.	8cc#\L)	.
.	.	.	.	.	.	(8a\	.
4r	.	(4a/	4ryy	.	.	8b\	.
.	.	.	.	.	.	8b#X\J)	.
2AA\ [2A	.	8ee/L 8aa	2gn\ 2a	.	>	(2cc#\	>
.	.	8ggn/	.	.	.	.	.
.	.	8ff#/	.	.	.	.	.
.	.	8ee#X/J	.	.	.	.	.
*	*	*v	*v	*	*	*	*
=76	=76	=76	=76	=76	=76	=76
*^	*	*	*	*	*	*
8D\ 8A]	8ryy	.	8f#\) 8dd 8ff#	.	.	4dd\)	.
4D^/	[4.D\	.	(>4f#^>/ 4dd	.	]	.	.
.	.	.	.	.	.	4r	]
8E/	.	.	8gn/ 8cc#	.	.	.	.
8E#X/L	2D\]	.	8g#X/L 8b	.	.	2r	.
8F#/	.	.	8a/	.	.	.	.
8B-X/	.	.	8c#/ 8en 8gn	.	.	.	.
8A/J	.	.	8d/J) 8f#	.	.	.	.
=77	=77	=77	=77	=77	=77	=77	=77
2A#X/	2C#\	.	(>[1e [1f#	.	p	2r	.
4B/	4BB\	.	.	.	.	[2ff#\	p
4c#/	4AA#X\	.	.	.	.	.	.
=78	=78	=78	=78	=78	=78	=78	=78
*	*	*	*^	*	*	*	*
1B	1BB	.	2f#/]	4e\]	.	.	4ff#\]	.
.	.	.	.	2.d\	.	.	(4bb\	.
.	.	.	4a/	.	.	.	4ff#\	.
.	.	.	4g#/)	.	.	.	4gg#\)	.
*v	*v	*	*	*	*	*	*	*
*	*	*v	*v	*	*	*	*
=79	=79	=79	=79	=79	=79	=79
2FF#\	.	(>2A</ 2c# 2f#	.	.	(4aa\	>
.	.	.	.	.	8gg#\L	.
.	.	.	.	.	8ff#\J)	.
2GG#\	.	2F#</ 2B#X<	.	.	(4.ee^\	.
.	.	.	.	.	8ddn\	.
=80	=80	=80	=80	=80	=80	=80
*	*	*^	*	*	*	*
*	*	*	*	*	*^	*	*
!LO:MO:mod=!LO&colon;TX&colon;i&colon;t=legato	!	!	!	!LO:MO:mod=!null:null	!LO:MO:mod=!null:null	!	!	!
!LO:TX:b:i:t=legato	!	!	!	!	!LO:DY:b=2	!LO:HP:b=2	!	!
(>2.C#\	.	(8E#X</L) 8c#<	4ryy	.	p	<	4cc#\)	.
.	.	8c#\	.	.	.	.	.	.
.	.	8cc#\	4cc#/	.	.	.	4r	]
.	.	8c#\J	.	.	.	.	.	.
!	!	!	!LO:TX:i:a:t=cantabile	!	!	!	!	!
.	.	8e#X\L	4e#/	.	.	.	2r	.
!	!	!LO:MO:mod=!LO&colon;TX&colon;i&colon;b&colon;t=con espress.	!	!	!	!	!	!
!	!	!LO:TX:i:b:t=con es_	!	!	!	!	!	!
.	.	8c#\	.	.	.	.	.	.
4D#X\	.	8f#\	4f#/	.	.	.	.	.
.	.	8c#\J)	.	.	.	.	.	.
!!LO:PB:g=original	!	!	!	!	!	!	!	!
=81	=81	=81	=81	=81	=81	=81	=81	=81
!	!	!	!	!	!LO:MO:mod=!null:null	!	!	!
!	!	!LO:TX:b:i:t=press.:mod=	!	!	!LO:HP:a	!	!	!
4E#X\	.	4g#/	8g#\L	.	<	.	1r	.
.	.	.	8c#\	.	.	.	.	.
4F#\	.	4a#X/	8a#\	.	.	.	.	.
.	.	.	8c#\J	.	.	.	.	.
4G#\	.	4b#X/	8b#\L	.	.	.	.	.
.	.	.	8f#\	.	.	.	.	.
4A#X\	.	4cc#/	8cc#\	.	.	.	.	.
.	.	.	8f#\J	.	[[	.	.	.
=82	=82	=82	=82	=82	=82	=82	=82	=82
!	!	!	!	!	!LO:MO:mod=!null:null	!	!	!
!	!	!	!	!	!LO:HP:a	!	!	!
4.B#X\	.	(8ee#X/L	2f#\ 2g#	.	>	[	1r	.
.	.	8dd#X/)	.	.	.	.	.	.
.	.	(8dd#/	.	.	.	.	.	.
!	!	!	!	!	!	!LO:HP:b=2	!	!
8c#\	.	8cc#/J)	.	.	.	>	.	.
!	!	!	!	!	!LO:MO:mod=!null:null	!	!	!
!	!	!	!	!	!LO:HP:a	!	!	!
!	!	!	!	!	!LO:MO:null:mod=.	!	!	!
8e#X\L	.	(8cc#/L	2f#\ 2g#	.	] >	.	.	.
8d#X\)	.	8b#X/)	.	.	.	.	.	.
(8d#\	.	(8b#/	.	.	.	.	.	.
8c#\J)	.	8a#X/J)	.	.	]]	]]	.	.
*	*	*	*	*	*v	*v	*	*
=83	=83	=83	=83	=83	=83	=83	=83
(8A##X\L	.	(8f##X/L	[2f#X\	.	.	1r	.
8B#X\	.	8g#/	.	.	.	.	.
8.d#X\	.	8.b#X/	.	.	.	.	.
16c#\Jk	.	16a#X/Jk	.	.	.	.	.
4c#\	.	4a#/	8f#\]	.	.	.	.
.	.	.	4d#X\ 4f#	.	.	.	.
[4B#\)	.	[4g#/)	.	.	.	.	.
.	.	.	[8d#\ [8f#	.	.	.	.
=84	=84	=84	=84	=84	=84	=84	=84
*^	*	*	*	*	*	*	*
!LO:SIC:s=4C#\ 4G#\\	!LO:SIC:s=8B#//L]	!	!	!	!	!	!	!
4C#\ 4G#	8B#/L]	.	8g#/]	8d#\] 8f#]	.	.	4r	.
.	8c#>\J	.	4e/ 4g#X	8ryy	.	.	.	.
!	!	!	!	!	!	!	!LO:TX:b:i:t=con gran espressione	!
4r	4r	.	.	4ryy	.	.	(4cc#\	.
.	.	.	4c#/ 4e 4g#	.	.	p	.	.
!	!	!	!	!	!	!	!	!LO:MO:mod=!null:null
!LO:TX:i:b:t=legato	!	!	!	!	!	!	!	!LO:HP:a
(4C#/	2ryy	.	.	2ryy	.	.	4e#X/	<
.	.	.	4c#/ 4cc#	.	.	.	.	.
4D#X/	.	.	.	.	.	.	4f#/)	.
.	.	.	[8c#/ [8cc#	.	.	.	.	.
*v	*v	*	*	*	*	*	*	*
*	*	*v	*v	*	*	*	*
=85	=85	=85	=85	=85	=85	=85
4E#X\	.	8c#/] 8cc#]	.	.	(4g#/	.
.	.	4c#/ 4cc#	.	.	.	.
4F#\	.	.	.	.	4a#X/	.
.	.	4c#/ 4cc#	.	.	.	.
4G#\	.	.	.	.	4b#X\	.
.	.	4f#/	.	.	.	.
4A#X\	.	.	.	.	4cc#\)	[
.	.	[8f#/	.	.	.	.
!!LO:LB:g=original	!	!	!	!	!	!	!
=86	=86	=86	=86	=86	=86	=86
4.B#X\	.	8f#/]	.	.	(8ee#X\L	>
.	.	4f#/ 4g#	.	p	8dd#X\)	.
.	.	.	.	.	(8dd#\	.
8c#\	.	4f#/ 4g#	.	.	8cc#\J)	.
8e#X\L	.	.	.	.	(8cc#\L	.
8d#X\)	.	4f#/ 4g#	.	.	8b#X\)	.
(8d#\	.	.	.	.	(8b#\	.
8c#\J)	.	[8f#/ [8g#	.	.	8a#X\J)	]]
=87	=87	=87	=87	=87	=87	=87
*	*	*^	*	*	*	*
(8A##X\L	.	4.f#/] 4.g#]	2.ryy	.	>	(8f##X/L	.
8B#X\	.	.	.	.	.	8g#/	.
8d#X\	.	.	.	.	.	8.b#X/	.
8c#\J	.	[8f#/ [8g#	.	.	] pp	.	.
.	.	.	.	.	.	16a#X/Jk)	.
4B#\)	.	4f#/] 4g#]	.	.	.	4g#/	>
4F#\	.	4f#/ 4a#X	4c#\	.	p	4cc#^\	]]
*	*	*v	*v	*	*	*	*
=88	=88	=88	=88	=88	=88	=88
2.GG#/ 2.G#	.	2.B#X/ 2.f# 2.g#	.	.	(8f##X/L	p
.	.	.	.	.	8g#/	.
.	.	.	.	.	8b#X/	.
.	.	.	.	.	8a#X/J	.
.	.	.	.	.	4g#/)	.
*	*	*	*	*^	*	*
*ped	*	*	*	*	*	*	*
!	!	!	!	!LO:HP:a	!LO:DY:b	!	!
4FF#/ 4F#	.	4A#X/ [>4f# 4cc#	.	>]	pp	4r	.
*	*	*	*	*v	*v	*	*
=89	=89	=89	=89	=89	=89	=89
*^	*	*^	*	*	*	*
*Xped	*	*	*	*	*	*	*	*
2.GG#\	2.ryy	.	(2.B#X/ 2.f#]	(8f##X/L	.	<	1r	.
.	.	.	.	8g#/	.	.	.	.
.	.	.	.	8bn/	.	.	.	.
.	.	.	.	8a/J)	.	.	.	.
.	.	.	.	8g#/L	.	.	.	.
.	.	.	.	8dd#X/J	.	.	.	.
*ped	*	*	*	*	*	*	*	*
!	!	!	!LO:TUP:a:problem:klamra łukowa	!	!	!	!	!
4FF#\	8A/L	.	12ddn/L	4c#\ [<4f#X	.	[	.	.
.	.	.	12cc#/	.	.	.	.	.
.	8c#>\J	.	.	.	.	.	.	.
.	.	.	12b/J	.	.	.	.	.
*v	*v	*	*	*	*	*	*	*
=90	=90	=90	=90	=90	=90	=90	=90
*Xped	*	*	*	*	*	*	*
2GG#/	.	[<2B#X/ 2f#X]	8f##X/L	.	>	1r	.
.	.	.	8g#/	.	.	.	.
.	.	.	8bn/	.	.	.	.
.	.	.	8a/J	.	.	.	.
8CC#/ 8C#	.	8e#X/) 8g#	8B#\L]	.	.	.	.
!	!	!	!	!	!LO:MO:null:mod=.	!	!
8r	.	8r	NN(>8c#\	.	] >	.	.
4r	.	4r	8en\	.	.	.	.
.	.	.	8d\J	.	.	.	.
*	*	*v	*v	*	*	*	*
!!LO:LB:g=original	!	!	!	!	!	!	!
=91	=91	=91	=91	=91	=91	=91
!	!	!LO:TX:b:i:t=molto	!	!	!	!
!	!	!LO:TX:b:i:t=main droite	!	!LO:HP:a	!	!
2ryy	.	8B#X\L	.	] >	1r	.
.	.	8c#\	.	.	.	.
.	.	8en\	.	.	.	.
.	.	8d\J	.	.	.	.
8.c#>\L	.	2ryy	.	]]	.	.
16Bn/Jk	.	.	.	.	.	.
!LO:TX:a:i:t=smorz.	!	!	!	!	!	!
12B\L	.	.	.	pp	.	.
!LO:TX:b:t=m.g.	!	!	!	!	!	!
12A\	.	.	.	.	.	.
12G#\JNN)	.	.	.	.	.	.
=92	=92	=92	=92	=92	=92	=92
2F#\	.	(2e/ 2a#X	.	ppp	2cc#\	p
4Fn\	.	4d/ 4b	.	.	(4dd\	.
4E\	.	4g#/ [4cc#	.	.	4ee\)	.
=93	=93	=93	=93	=93	=93	=93
*	*	*^	*	*	*	*
4A\	.	4an/ 4cc#]	2ryy	.	.	(4cc#\	.
4G#\ 4B	.	4e/ 4b	.	.	.	4ee\	.
4F#X\ 4c#	.	4a/	2f#\	.	.	4aa\)	.
4D\ 4d	.	[4g#/	.	.	.	4bb\	.
=94	=94	=94	=94	=94	=94	=94	=94
2C#\ 2c#	.	4g#/]	2e#X\	.	.	2ccc#\	.
.	.	2cc#/	.	.	.	.	.
4F#\	.	.	2f#\	.	.	(8bb\L	.
.	.	.	.	.	.	8aa\	.
4D\	.	4b/	.	.	.	8gg#\	.
.	.	.	.	.	.	8ff#\J)	.
*	*	*v	*v	*	*	*	*
=95	=95	=95	=95	=95	=95	=95
!	!	!	!	!	!	!LO:HP:t=cresc.molto
4C#/	.	2g#/ 2cc#	.	<	2ee#X\	<
4c#\	.	.	.	.	.	.
!	!	!	!	!	!	!
4A\	.	4a\ 4cc#	.	.	(4een\	.
4B\	.	4f#/) 4b	.	[[	4dd\)	.
=96	=96	=96	=96	=96	=96	=96
8C#\L 8c#	.	4e#X/ 4g#	.	f	2cc#\	f
8BB\ 8B	.	.	.	.	.	.
8AA#X\ 8A#X	.	4en/ 4f# 4cc#	.	.	.	.
8FF#\J 8F#	.	.	.	.	.	.
8BB/L 8B	.	4d/ 4f# 4dd	.	.	(4dd\	.
8AAn/ 8An	.	.	.	.	.	.
8GG#/ 8G#	.	4d/ 4e 4b 4ee	.	.	4ee\)	.
8EE/J 8E	.	.	.	.	.	.
=97	=97	=97	=97	=97	=97	=97
*	*	*^	*	*	*	*
8AA\L 8A	.	4c#/ 4a 4cc#	2ryy	.	.	(4cc#\	.
8BB\ 8B	.	.	.	.	.	.	.
8AA\ 8A	.	4e/ 4a 4cc# 4ee	.	.	.	4ee\)	.
8GGn\J 8Gn	.	.	.	.	.	.	.
8FF#/L 8F#	.	[<<2a/ [2aa	4dd\	.	ff >	[2aa\	ff
8FFn/ 8Fn	.	.	.	.	.	.	.
8EE/ 8E	.	.	8cc#\L	.	.	.	.
8DD#X/J 8D#X	.	.	8b#X\J	.	.	.	.
*	*	*v	*v	*	*	*	*
!!LO:LB:g=original	!	!	!	!	!	!	!
=98	=98	=98	=98	=98	=98	=98
8EE/L 8E	.	4a\] 4cc# 4aa]	.	.	4aa\]	>
8EEE/ 8EE	.	.	.	.	.	.
8EEE#X/ 8EE#X	.	(8bn\L 8dd	.	.	(8gg#\L	.
8FFF#/J 8FF#	.	8a\J 8cc#	.	.	8ff#\J)	.
4GGG#/ 4GG#	.	4en/) 4b	.	]	(8ee\L	.
.	.	.	.	.	8dd\J)	.
4EEn/ 4En	.	(4dd\ 4gg#	.	.	(8cc#\L	.
.	.	.	.	.	8b\J)	]]
=99	=99	=99	=99	=99	=99	=99
*^	*	*^	*	*	*	*
!	!	!	!LO:TX:b:i:t=marcato il tema e legato	!	!	!	!	!
(2C#/	[1AA	.	4cc#/ 4aa	2.a\	.	pp	4a/	.
!	!	!	!LO:TX:b:i:t=e legatissimo:mod=	!	!	!	!	!
.	.	.	4ee/ 4gg#	.	.	.	4r	.
4D/	.	.	4dd/ 4ff#	.	.	.	2r	.
4E/)	.	.	4ee/)	4g#\	.	.	.	.
=100	=100	=100	=100	=100	=100	=100	=100	=100
!	!	!	!LO:TUP:a:problem:klamra łukowa	!	!	!	!	!
(4C#/	1AA]	.	(12ee/L	4a\	.	.	1r	.
.	.	.	12dd/	.	.	.	.	.
.	.	.	12cc#/J	.	.	.	.	.
!	!	!	!LO:TUP:a:problem:klamra łukowa	!	!	!	!	!
4E/	.	.	12cc#/L	4e\	.	.	.	.
.	.	.	12b/	.	.	.	.	.
.	.	.	12a/J	.	.	.	.	.
4A/	.	.	4f#/	4d#X\	.	.	.	.
4B/	.	.	4g#/	4dn\	.	.	.	.
=101	=101	=101	=101	=101	=101	=101	=101	=101
16qqA/LL	.	.	.	.	.	.	.	.
16qqB/JJ	.	.	.	.	.	.	.	.
[>2c#/)	2ryy	.	4a/	4e\	.	.	1r	.
.	.	.	4g#/	4e#X\	.	.	.	.
!	!LO:TUP:b:problem:klamra łukowa	!	!	!	!	!	!	!
4.c#/]	12c#\L	.	4.cc#/	4.f#\	.	.	.	.
.	12B\	.	.	.	.	.	.	.
.	12A\J	.	.	.	.	.	.	.
.	(12A\L	.	.	.	.	.	.	.
.	12G#\	.	.	.	.	.	.	.
8B#X/	.	.	8dd#X/	8a\	.	.	.	.
.	12F#\J	.	.	.	.	.	.	.
=102	=102	=102	=102	=102	=102	=102	=102	=102
!LO:TUP:a:problem:klamra łukowa	!	!	!LO:TUP:a:problem:klamra łukowa	!LO:MO:mod=*null:null	!	!	!	!
*	*	*	*	*Xtuplet	*	*	*	*
12c#/L	2E\)	.	12ee/L	12e\L [12a	.	.	1r	.
12B#X/	.	.	12dd#X/	12f#\ 12a]	.	.	.	.
12Bn/J	.	.	12ddn/J	12g#\J	.	.	.	.
!LO:TUP:a:problem:klamra łukowa	!	!	!LO:TUP:a:problem:klamra łukowa	!	!	!	!	!
12B/L	.	.	12g#/L 12dd	6e\	.	.	.	.
12F#/	.	.	12a/ 12cc#	.	.	.	.	.
12G#/J	.	.	12b/J	12d\	.	.	.	.
4AA\ 4A	2ryy	.	[2a/)	4c#\	.	.	.	.
!	!	!	!	!	!	!LO:MO:null:mod=!LO&colon;HP&colon;t=dim. e riters.	!	!
!	!	!	!	!	!	!LO:HP:b:t=dimm. e ritard.	!	!
4C#/	.	.	.	[>4A\ [4e	1 3	>	.	.
*v	*v	*	*	*	*	*	*	*
=103	=103	=103	=103	=103	=103	=103	=103
[2D\	.	2e/] 2g# 2a]	1A]	2 4 5	.	1r	.
2DD/ 2D]	.	2d/ 2f# 2b	.	2 3 5	.	.	.
*	*	*v	*v	*	*	*	*
=104	=104	=104	=104	=104	=104	=104
.	.	(8qc#/	.	.	.	.
1AAA; 1AA 1E 1A	1-5 2 1	1c#;) 1e 1a 1cc#	.	.	1r;	.
==	==	==	==	==	==	==
*-	*-	*-	*-	*-	*-	*-
!!!system-decoration: s1{(s2,s3)}
!!!RDF**kern: N = linked
!!!RDF**kern: NN = linked
!!!RDF**kern: > = above
!!!RDF**kern: < = below
!!!ENC: Berenika Jozajtis
!!!END: 2022-07-21
!!!ENC: Jan Barakat
!!!END: 2022-08-15
!!!ENC-modern: Andrzej Borzym
!!!END-modern: 2022-08-29
!!!YEC: Copyright 2022 Narodowy Instytut Fryderyka Chopina (https://polishscores.org)
!!!YEM: Licence CC BY 4.0 (https://creativecommons.org/licenses/by/4.0)
